icons/beach.svg

<svg width="24" height="24" viewBox="0 0 24 24" fill="none" xmlns="http://www.w3.org/2000/svg">
<path fill-rule="evenodd" clip-rule="evenodd" d="M12.502 15.285C13.109 14.789 13.659 13.873 14.152 12.536C14.665 16.872 14.94 19.36 14.976 19.999H21.002C21.668 19.999 22.002 20.333 22.002 21C22.002 21.667 21.668 22 21.002 22H2.998C2.334 22 2.001 21.667 2 21.003C1.999 20.339 2.333 20.005 3.002 20.002H12.992C12.925 18.707 12.502 15.285 12.502 15.285ZM9.302 7.51503C8.056 7.81203 7.244 8.58003 6.869 9.82003C6.305 11.679 7.219 13.265 7.219 13.265C6.563 13.51 5.767 13.561 4.83 13.415C4.203 11.611 4.476 9.88503 5.65 8.23703C6.823 6.58803 8.471 5.79503 10.595 5.85703C11.898 3.56803 13.858 2.65503 16.474 3.11703C20.399 3.80803 20.979 7.41303 20.979 7.41303C20.643 7.79603 20.197 8.12703 19.64 8.40503C19.139 6.69503 18.11 5.52003 16.555 4.87903C15.001 4.23903 13.429 4.44003 11.841 5.48403C13.761 5.34603 15.331 5.70203 16.555 6.55403C18.312 7.81403 18.991 9.63303 18.593 12.012C17.5139 12.3029 16.3686 12.2248 15.339 11.79C14.278 11.353 13.485 10.648 12.962 9.67503C13.107 10.235 13.129 10.941 13.027 11.79C12.749 13.93 10.595 15.217 10.595 15.217C10.595 15.217 8.62 14.276 8.203 11.79C7.925 10.133 8.292 8.70803 9.303 7.51503H9.302Z" fill="#3A3A47"/>
</svg>

<svg xmlns="http://www.w3.org/2000/svg" width="24" height="24" viewBox="0 0 24 24">
    <path fill="#3A3A47" fill-rule="evenodd" d="M14.152 12.536c.513 4.336.788 6.824.824 7.463h6.026c.666 0 1 .334 1 1.001 0 .667-.334 1-1 1H2.998c-.664 0-.997-.333-.998-.997-.001-.664.333-.998 1.002-1.001h9.99c-.067-1.295-.49-4.717-.49-4.717.607-.496 1.157-1.412 1.65-2.749zm-3.558-6.68c1.303-2.288 3.263-3.201 5.879-2.74 3.925.692 4.505 4.297 4.505 4.297-.336.383-.782.714-1.339.992-.501-1.71-1.53-2.885-3.085-3.526-1.554-.64-3.126-.439-4.714.605 1.92-.138 3.49.218 4.714 1.07 1.757 1.26 2.436 3.079 2.038 5.458a5.012 5.012 0 0 1-3.254-.222c-1.061-.437-1.854-1.142-2.377-2.115.145.56.167 1.266.065 2.115-.278 2.14-2.432 3.427-2.432 3.427s-1.975-.941-2.392-3.427c-.278-1.657.089-3.082 1.1-4.275-1.247.297-2.059 1.065-2.434 2.305-.564 1.859.35 3.445.35 3.445-.656.245-1.452.296-2.389.15-.627-1.804-.354-3.53.82-5.178 1.173-1.649 2.821-2.442 4.945-2.38z"/>
</svg>
